X: 3039
T: COLQUHALZIE FIR TREES
C: J.S. Robertson
Q:"Strathspey."
R: Strathspey.
%R:strathspey
B: James Kerr "Merry Melodies" v.3 p.7 #39
Z: 2016 John Chambers <jc:trillian.mit.edu>
%%slurgraces yes
%%graceslurs yes
M: C
L: 1/16
K: G
uB2 |\
G3AB3g dB3B3g | d3Bg3B dB3B3g |\
G3AB3g dB3B3g | a3fg3B AAA2 A3B |\
G3AB3g dB3B3g | d3Bg3B dB3B3g |
eg3d3B e3dB3g | a3fg3B AAA2 A2 |]\
uB2 |\
GGG2 (B3c) dB3B3g | d3Bg3B dB3B3g |\
GGG2 B3c dB3B3g |
{f}g3e{^c}d3B AAA2 (A3B) |\
GGG2 (B3c) dB3B3g | d3Bg3B dB3B3g |\
e3fg3e db3g3d | (eg3) d3B AAA2 A2 |]

%%sep 1 1 500
%%sep 1 1 500

